X:159
T:The Soldering Iron
B:Terry "Cuz" Teahan "Sliabh Luachra on Parade" 1980
Z:Patrick Cavanagh
M:4/4
L:1/8
R:Hornpipe
K:G
D/E/F | GBAG EDEF | GAB/c/d efge | d2BG AGBG | G2GG EDEF | 
GBAG EDEF | GAB/c/d efge | d2BG AGED | G2GG G2 :| 
|: ef | g2fg ed B/c/d | g2bg agef | gefd edBG | AGBG AGED | 
GBAG EDEF | GAB/c/d efge | d2BG AGED | G2GG G2 :|| 

